src/topics/icons/x-ray-goggles.svg

<svg height="196" preserveAspectRatio="xMidYMid" viewBox="0 0 256 196" width="256" xmlns="http://www.w3.org/2000/svg"><path d="m81.5002 55.6832 1.38.096 44.856-25.454.307-1.054-47.584-26.75c-11.443-6.332-24.096 6.139-17.93 17.673z" fill="#e79ec0"/><path d="m174.2417 56.0273-1.576.113-44.502-25.773-.121-1.096 47.989-26.877c11.652-6.526 24.546 6.335 18.049 18.003z" fill="#57b4dd"/><path d="m127.6129 137.3268-.115-3.642 44.048-76.166 2.696-1.491 47.368 25.883-74.898 86.531z" fill="#e79ec0"/><path d="m127.6129 137.3268-15.141 26.412-80.812-79.837 49.84-28.219 2.391.212 44.066 78.019z" fill="#57b4dd"/><path d="m256 135.7925c0 32.872-26.648 59.519-59.519 59.519-32.872 0-59.519-26.647-59.519-59.519s26.647-59.519 59.519-59.519c32.871 0 59.519 26.647 59.519 59.519" fill="#f072ab"/><path d="m119.0384 136.4808c0 32.872-26.648 59.519-59.519 59.519-32.872 0-59.519-26.647-59.519-59.519s26.647-59.519 59.519-59.519c32.871 0 59.519 26.647 59.519 59.519" fill="#26a9e0"/><path d="m128.043 29.2717 46.199 26.756-46.629 81.299-46.113-81.643z" fill="#507ab4"/><path d="m227.9825 138.6172c0 17.548-14.226 31.774-31.774 31.774-17.549 0-31.774-14.226-31.774-31.774s14.225-31.774 31.774-31.774c17.548 0 31.774 14.226 31.774 31.774" fill="#fff"/><path d="m200.9114 138.9613c-1.901 0-3.441-1.541-3.441-3.441 0-1.901 1.54-3.441 3.441-3.441s3.441 1.54 3.441 3.441c0 1.9-1.54 3.441-3.441 3.441m-14.6069-10.000311c-2.460232 2.522173-3.9761 5.969778-3.9761 9.771311 0 7.728 6.266 13.994 13.995 13.994s13.994-6.266 13.994-13.994c0-4.254536-1.898362-8.065768-4.894295-10.632572 4.537954 2.262128 9.107447 6.089623 13.153695 11.320472l.573-4.588c-7.964-10.295-15.145-13.638-23.874-13.236-13.846.648-22.915 14.715-23.294 15.314l2.432 4.46c.058197-.091966 4.849113-7.846724 11.8907-12.409211z" fill="#f072ab"/><path d="m89.6445 138.6172c0 17.548-14.226 31.774-31.774 31.774-17.549 0-31.774-14.226-31.774-31.774s14.225-31.774 31.774-31.774c17.548 0 31.774 14.226 31.774 31.774" fill="#fff"/><path d="m62.5733 138.9613c-1.901 0-3.441-1.541-3.441-3.441 0-1.901 1.54-3.441 3.441-3.441s3.441 1.54 3.441 3.441c0 1.9-1.54 3.441-3.441 3.441m-14.6069002-10.000311c-2.460232 2.522173-3.9760998 5.969778-3.9760998 9.771311 0 7.728 6.266 13.994 13.995 13.994s13.994-6.266 13.994-13.994c0-4.254536-1.8983617-8.065768-4.8942952-10.632572 4.5379543 2.262128 9.1074477 6.089623 13.1536952 11.320472l.573-4.588c-7.964-10.295-15.145-13.638-23.874-13.236-13.846.648-22.915 14.715-23.294 15.314l2.432 4.46c.0581973-.091966 4.849113-7.846724 11.8906998-12.409211z" fill="#26a9e0"/></svg>

<?xml version="1.0" encoding="UTF-8" standalone="no"?>
<svg width="256px" height="196px" viewBox="0 0 256 196" version="1.1" xmlns="http://www.w3.org/2000/svg" xmlns:xlink="http://www.w3.org/1999/xlink" preserveAspectRatio="xMidYMid">
	<g>
		<path d="M81.5002,55.6832 L82.8802,55.7792 L127.7362,30.3252 L128.0432,29.2712 L80.4592,2.5212 C69.0162,-3.8108 56.3632,8.6602 62.5292,20.1942 L81.5002,55.6832 Z" fill="#E79EC0"></path>
		<path d="M174.2417,56.0273 L172.6657,56.1403 L128.1637,30.3673 L128.0427,29.2713 L176.0317,2.3943 C187.6837,-4.1317 200.5777,8.7293 194.0807,20.3973 L174.2417,56.0273 Z" fill="#57B4DD"></path>
		<path d="M127.6129,137.3268 L127.4979,133.6848 L171.5459,57.5188 L174.2419,56.0278 L221.6099,81.9108 L146.7119,168.4418 L127.6129,137.3268 Z" fill="#E79EC0"></path>
		<path d="M127.6129,137.3268 L112.4719,163.7388 L31.6599,83.9018 L81.4999,55.6828 L83.8909,55.8948 L127.9569,133.9138 L127.6129,137.3268 Z" fill="#57B4DD"></path>
		<path d="M256,135.7925 C256,168.6645 229.352,195.3115 196.481,195.3115 C163.609,195.3115 136.962,168.6645 136.962,135.7925 C136.962,102.9205 163.609,76.2735 196.481,76.2735 C229.352,76.2735 256,102.9205 256,135.7925" fill="#F072AB"></path>
		<path d="M119.0384,136.4808 C119.0384,169.3528 92.3904,195.9998 59.5194,195.9998 C26.6474,195.9998 0.0004,169.3528 0.0004,136.4808 C0.0004,103.6088 26.6474,76.9618 59.5194,76.9618 C92.3904,76.9618 119.0384,103.6088 119.0384,136.4808" fill="#26A9E0"></path>
		<path d="M128.043,29.2717 L174.242,56.0277 L127.613,137.3267 L81.5,55.6837 L128.043,29.2717 Z" fill="#507AB4"></path>
		<path d="M227.9825,138.6172 C227.9825,156.1652 213.7565,170.3912 196.2085,170.3912 C178.6595,170.3912 164.4345,156.1652 164.4345,138.6172 C164.4345,121.0692 178.6595,106.8432 196.2085,106.8432 C213.7565,106.8432 227.9825,121.0692 227.9825,138.6172" fill="#FFFFFF"></path>
		<path d="M200.9114,138.9613 C199.0104,138.9613 197.4704,137.4203 197.4704,135.5203 C197.4704,133.6193 199.0104,132.0793 200.9114,132.0793 C202.8124,132.0793 204.3524,133.6193 204.3524,135.5203 C204.3524,137.4203 202.8124,138.9613 200.9114,138.9613 M186.3045,128.960989 C183.844268,131.483162 182.3284,134.930767 182.3284,138.7323 C182.3284,146.4603 188.5944,152.7263 196.3234,152.7263 C204.0524,152.7263 210.3174,146.4603 210.3174,138.7323 C210.3174,134.477764 208.419038,130.666532 205.423105,128.099728 C209.961059,130.361856 214.530552,134.189351 218.5768,139.4202 L219.1498,134.8322 C211.1858,124.5372 204.0048,121.1942 195.2758,121.5962 C181.4298,122.2442 172.3608,136.3112 171.9818,136.9102 L174.4138,141.3702 C174.471997,141.278234 179.262913,133.523476 186.3045,128.960989 Z" fill="#F072AB"></path>
		<path d="M89.6445,138.6172 C89.6445,156.1652 75.4185,170.3912 57.8705,170.3912 C40.3215,170.3912 26.0965,156.1652 26.0965,138.6172 C26.0965,121.0692 40.3215,106.8432 57.8705,106.8432 C75.4185,106.8432 89.6445,121.0692 89.6445,138.6172" fill="#FFFFFF"></path>
		<path d="M62.5733,138.9613 C60.6723,138.9613 59.1323,137.4203 59.1323,135.5203 C59.1323,133.6193 60.6723,132.0793 62.5733,132.0793 C64.4743,132.0793 66.0143,133.6193 66.0143,135.5203 C66.0143,137.4203 64.4743,138.9613 62.5733,138.9613 M47.9663998,128.960989 C45.5061678,131.483162 43.9903,134.930767 43.9903,138.7323 C43.9903,146.4603 50.2563,152.7263 57.9853,152.7263 C65.7143,152.7263 71.9793,146.4603 71.9793,138.7323 C71.9793,134.477764 70.0809383,130.666532 67.0850048,128.099728 C71.6229591,130.361856 76.1924525,134.189351 80.2387,139.4202 L80.8117,134.8322 C72.8477,124.5372 65.6667,121.1942 56.9377,121.5962 C43.0917,122.2442 34.0227,136.3112 33.6437,136.9102 L36.0757,141.3702 C36.1338973,141.278234 40.924813,133.523476 47.9663998,128.960989 Z" fill="#26A9E0"></path>
	</g>
</svg>
